dist/img/zoom.svg

<svg width="14" height="14" viewBox="0 0 14 14" fill="none" xmlns="http://www.w3.org/2000/svg">
<path d="M13.8289 13.0043L9.84772 9.023C10.6189 8.07043 11.0832 6.86 11.0832 5.54168C11.0832 2.48618 8.59705 0 5.54159 0C2.48612 0 0 2.48615 0 5.54165C0 8.59715 2.48615 11.0833 5.54162 11.0833C6.85992 11.0833 8.07034 10.619 9.0229 9.84783L13.0041 13.8291C13.1179 13.9428 13.2672 14 13.4165 14C13.5659 14 13.7152 13.9428 13.8289 13.8291C14.057 13.601 14.057 13.2323 13.8289 13.0043ZM5.54162 9.91665C3.12897 9.91665 1.16666 7.95432 1.16666 5.54165C1.16666 3.12897 3.12897 1.16665 5.54162 1.16665C7.95426 1.16665 9.91657 3.12897 9.91657 5.54165C9.91657 7.95432 7.95424 9.91665 5.54162 9.91665Z" fill="#515151"/>
</svg>

<svg width="14" height="14" fill="none" xmlns="http://www.w3.org/2000/svg"><path d="M13.829 13.004L9.848 9.023a5.515 5.515 0 001.235-3.481A5.548 5.548 0 005.542 0 5.548 5.548 0 000 5.542a5.548 5.548 0 005.542 5.541 5.515 5.515 0 003.48-1.235l3.982 3.981a.582.582 0 10.825-.825zM5.542 9.917a4.38 4.38 0 01-4.375-4.375 4.38 4.38 0 014.375-4.375 4.38 4.38 0 014.375 4.375 4.38 4.38 0 01-4.375 4.375z" fill="#515151"/></svg>
